svg/file/markdown_line.svg

<?xml version="1.0" encoding="UTF-8"?>
<svg width="24px" height="24px" viewBox="0 0 24 24" version="1.1" xmlns="http://www.w3.org/2000/svg" xmlns:xlink="http://www.w3.org/1999/xlink">
    <title>markdown_line</title>
    <g id="Icon" stroke="none" stroke-width="1" fill="none" fill-rule="evenodd">
        <g id="File" transform="translate(-384.000000, -384.000000)" fill-rule="nonzero">
            <g id="markdown_line" transform="translate(384.000000, 384.000000)">
                <path d="M24,0 L24,24 L0,24 L0,0 L24,0 Z M12.5935,23.2578 L12.5819,23.2595 L12.5109,23.295 L12.4919,23.2987 L12.4767,23.295 L12.4057,23.2595 C12.3958,23.2564 12.387,23.259 12.3821,23.2649 L12.378,23.2758 L12.3609,23.7031 L12.3659,23.7235 L12.3769,23.7357 L12.4805,23.8097 L12.4953,23.8136 L12.5071,23.8097 L12.6107,23.7357 L12.6233,23.7197 L12.6267,23.7031 L12.6096,23.2758 C12.6076,23.2657 12.601,23.2593 12.5935,23.2578 Z M12.8584,23.1453 L12.8445,23.1473 L12.6598,23.2397 L12.6499,23.2499 L12.6472,23.2611 L12.6651,23.6906 L12.6699,23.7034 L12.6784,23.7105 L12.8793,23.8032 C12.8914,23.8069 12.9022,23.803 12.9078,23.7952 L12.9118,23.7812 L12.8777,23.1665 C12.8753,23.1546 12.8674,23.147 12.8584,23.1453 Z M12.143,23.1473 C12.1332,23.1424 12.1222,23.1453 12.1156,23.1526 L12.1099,23.1665 L12.0758,23.7812 C12.0751,23.7927 12.0828,23.8019 12.0926,23.8046 L12.1083,23.8032 L12.3092,23.7105 L12.3186,23.7024 L12.3225,23.6906 L12.3404,23.2611 L12.3372,23.2485 L12.3278,23.2397 L12.143,23.1473 Z" id="MingCute"></path>
                <path d="M20,5 C21.0543909,5 21.9181678,5.81587733 21.9945144,6.85073759 L22,7 L22,17 C22,18.0543909 21.18415,18.9181678 20.1492661,18.9945144 L20,19 L4,19 C2.94563773,19 2.08183483,18.18415 2.00548573,17.1492661 L2,17 L2,7 C2,5.94563773 2.81587733,5.08183483 3.85073759,5.00548573 L4,5 L20,5 Z M20,7 L4,7 L4,17 L20,17 L20,7 Z M6.83333,9 C7.15614778,9 7.45640753,9.15556741 7.6430168,9.41310727 L7.70749,9.51436 L8.5,10.9409 L9.29251,9.51436 C9.44928333,9.23216444 9.7310937,9.04524198 10.0468697,9.00718754 L10.1667,9 L11,9 C11.51285,9 11.9355092,9.38604429 11.9932725,9.88337975 L12,10 L12,14 C12,14.5523 11.5523,15 11,15 C10.48715,15 10.0644908,14.613973 10.0067275,14.1166239 L10,14 L10,12.3591 L9.37416,13.4856 C9.19779,13.8031 8.86317,14 8.5,14 C8.17718222,14 7.87692247,13.8444247 7.6903132,13.586862 L7.62584,13.4856 L7,12.3591 L7,14 C7,14.5523 6.55228,15 6,15 C5.48716857,15 5.06449347,14.613973 5.0067278,14.1166239 L5,14 L5,10 C5,9.48716857 5.38604429,9.06449347 5.88337975,9.0067278 L6,9 L6.83333,9 Z M16,9 C16.5523,9 17,9.44772 17,10 L17,11.6337 C17.3824,11.4126 17.8799,11.4657 18.2071,11.7929 C18.5976,12.1834 18.5976,12.8166 18.2071,13.2071 L16.7071,14.7071 C16.3166,15.0976 15.6834,15.0976 15.2929,14.7071 L13.7929,13.2071 C13.4024,12.8166 13.4024,12.1834 13.7929,11.7929 C14.1201,11.4657 14.6176,11.4126 15,11.6337 L15,10 C15,9.44772 15.4477,9 16,9 Z" id="形状" fill="#09244B"></path>
            </g>
        </g>
    </g>
</svg>

<svg xmlns="http://www.w3.org/2000/svg" width="24" height="24"><g fill="none" fill-rule="nonzero"><path d="M24 0v24H0V0h24ZM12.594 23.258l-.012.002-.071.035-.02.004-.014-.004-.071-.036c-.01-.003-.019 0-.024.006l-.004.01-.017.428.005.02.01.013.104.074.015.004.012-.004.104-.074.012-.016.004-.017-.017-.427c-.002-.01-.009-.017-.016-.018Zm.264-.113-.014.002-.184.093-.01.01-.003.011.018.43.005.012.008.008.201.092c.012.004.023 0 .029-.008l.004-.014-.034-.614c-.003-.012-.01-.02-.02-.022Zm-.715.002a.023.023 0 0 0-.027.006l-.006.014-.034.614c0 .012.007.02.017.024l.015-.002.201-.093.01-.008.003-.011.018-.43-.003-.012-.01-.01-.184-.092Z"/><path fill="#09244B" d="M20 5a2 2 0 0 1 1.995 1.85L22 7v10a2 2 0 0 1-1.85 1.995L20 19H4a2 2 0 0 1-1.995-1.85L2 17V7a2 2 0 0 1 1.85-1.995L4 5h16Zm0 2H4v10h16V7ZM6.833 9a1 1 0 0 1 .81.413l.064.101.793 1.427.793-1.427a1 1 0 0 1 .754-.507l.12-.007H11a1 1 0 0 1 .993.883L12 10v4a1 1 0 0 1-1.993.117L10 14v-1.64l-.626 1.126a1 1 0 0 1-1.684.1l-.064-.1L7 12.359V14a1 1 0 0 1-1.993.117L5 14v-4a1 1 0 0 1 .883-.993L6 9h.833ZM16 9a1 1 0 0 1 1 1v1.634a1 1 0 0 1 1.207 1.573l-1.5 1.5a1 1 0 0 1-1.414 0l-1.5-1.5A1 1 0 0 1 15 11.634V10a1 1 0 0 1 1-1Z"/></g></svg>
